modules/feathericon/icons/artboard.svg

<svg width="14" height="14" viewBox="0 0 14 14" xmlns="http://www.w3.org/2000/svg"><path d="M3 3h8v8H3V3zm7 9h1v2h-1v-2zM0 3h2v1H0V3zm0 7h2v1H0v-1zm12-7h2v1h-2V3zm0 7h2v1h-2v-1zm-9 2h1v2H3v-2zm7-12h1v2h-1V0zM3 0h1v2H3V0z" fill="#000" fill-rule="evenodd"/></svg>

<?xml version="1.0" encoding="UTF-8"?>
<svg width="14px" height="14px" viewBox="0 0 14 14" version="1.1" xmlns="http://www.w3.org/2000/svg" xmlns:xlink="http://www.w3.org/1999/xlink">
    <!-- Generator: sketchtool 48.1 (47250) - http://www.bohemiancoding.com/sketch -->
    <title>artboard</title>
    <desc>Created with sketchtool.</desc>
    <defs></defs>
    <g id="production" stroke="none" stroke-width="1" fill="none" fill-rule="evenodd">
        <g id="artboard" fill="#000000">
            <path d="M3,3 L11,3 L11,11 L3,11 L3,3 Z M10,12 L11,12 L11,14 L10,14 L10,12 Z M0,3 L2,3 L2,4 L0,4 L0,3 Z M0,10 L2,10 L2,11 L0,11 L0,10 Z M12,3 L14,3 L14,4 L12,4 L12,3 Z M12,10 L14,10 L14,11 L12,11 L12,10 Z M3,12 L4,12 L4,14 L3,14 L3,12 Z M10,0 L11,0 L11,2 L10,2 L10,0 Z M3,0 L4,0 L4,2 L3,2 L3,0 Z" id="Shape"></path>
        </g>
    </g>
</svg>
